X: 22540
T: Lady Helen Wedderburn
R: reel
M: 4/4
K: Dmixolydian
G|FAAB AdAG|FAAB d2dA|FAAB AdAF|E/E/E =cE G2G:|
g|fdad bdag|fdaf g2fe|fdad fddf|e/e/e be g2eg|
fdad bdag|fdaf gbag|fdec dBAF|E/E/E =cE G2G||

